X: 1
T: Da Silver Bow
M: 2/4
L: 1/8
R: polka
K: Cmaj
Gc|:A2 GE|DC DE|G2 c2|c2 Gc|
cA GE|DC DE|D2 d2|d2 AB:|
c3G|E2 DE|C3E|D2 g2|g3 a|e2 c2|
c3e|dc BA|d3B|AB cd|ef ec|
A2 ag|e2 ed|e2 ag|e^f ge|dc Bc|
d2cB|AB cd|ef ec|A2 ag|
e2 ed|e2 ag|e^f ge|dc Bc|d2 cB|
